X: 1583
T: Peyk-i Neşat Peşrev
C: Behram Ağa (Nefirî)
O: Turkey
F: http://compmusic.upf.edu/node/140
N: peykinesat--pesrev--yuruksemai_ii----nefiri_behram_aga
N: makam= peykinesat
N: form= pesrev
N: usul= yuruksemai_ii = 6/8
M: 6/8
L: 1/16
K: C _1/4B ^f  
Q: 1/4=138
%%MIDI tuningsystem comma53
A4 d2c2 B2A2  | B2A2 c2B2 A2G2  | A2B2 c2d2 c2B2  | \
w:  1. HANE  |   |   | 
A2B2 c2d4z2  | 
w:   | 
d4 e2=fe d2c2  | B4 c2dc B2A2  | G2F2 G2A2 G2A2  | \
w:   |   |   | 
B2A2 B2c2 B2A2  | 
w:   | 
BcB2 A2G2 A2B2  | c4 d2c4B2  | edc2 B2A4B2  | \
w:  MÜLÂZİME  |   |   | 
A4 G2AG F2E2  | 
w:   | 
D4 E2F4G2  | AGF2 A2G4z2  | A2G2 A2B4z2  | \
w:   |   |  2. HANE  | 
cBA2 B2c4z2  | 
w:   | 
cdc2 B2c2 d2e2  | edc2 d2e4z2  | e=fe2 f2a2 g2^f2  | \
w:   |   |   | 
edc2 e2d4z2  | 
w:   | 
d4 e2d2 c2B2  | c4 d2c2 B2A2  | BcB2 A2G2 A2B2  | \
w:   |   |  MÜLÂZİME  | 
c4 d2c4B2  | 
w:   | 
edc2 B2A4B2  | A4 G2AG F2E2  | D4 E2F4G2  | \
w:   |   |   | 
AGF2 A2G4z2  | 
w:   | 
A4 a2a4g2  | agf2 g2a4z2  | a2b2 c'2b4a2  | \
w:  3. HANE  |   |   | 
bag2 f2g4z2  | 
w:   | 
g4 f2ga g2f2  | f4 e2fg f2e2  | d4 e2=fg f2e2  | \
w:   |   |   | 
d4 c2d4z2  | 
w:   | 
BcB2 A2G2 A2B2  | c4 d2c4B2  | edc2 B2A4B2  | \
w:  MÜLÂZİME  |   |   | 
A4 G2AG F2E2  | 
w:   | 
D4 E2F4G2  | AGF2 A2G4z2  | A4 d2d4z2  | \
w:   |   |  4. HANE  | 
ed^c2 d2e4z2  | ^c2d2 e2f2 g2f2  | 
w:   |   | 
agf2 e2d4z2  | f4 d2e4g2  | f2e2 d2c2 d2e2  | \
w:   |   |   | 
=fgf2 e2d4c2  | 
w:   | 
e2d2 c2B4A2  | BcB2 A2G2 A2B2  | c4 d2c4B2  | \
w:   |  MÜLÂZİME  |   | 
edc2 B2A4B2  | 
w:   | 
A4 G2AG F2E2  | D4 E2F4G2  | AGF2 A2G4z2  | |


